X: 33411
T: Quille's
R: reel
M: 4/4
K: Dmajor
|:D2FA BABc|dfed BEE2|D2FA BABc|dBAG FGAF:|
d2fd Adfa|g2fg eBBA|d2fd Adfa|gaea fddA|
d2fd Adfa|g2fg eBB2|~f3e ~d3B|ABAG FGAF||

